symbols/web/brightness_auto/materialsymbolsoutlined/brightness_auto_wght700grad200_40px.svg

<svg xmlns="http://www.w3.org/2000/svg" height="40" width="40"><path d="M13.167 27.042h3.25l1.125-3.875H22.5l1.125 3.875h3.333L21.5 11.5h-2.958Zm5-6.417 1.75-5.542h.208l1.792 5.542Zm1.875 18.792-5.792-5.625H6.208v-8L.5 20l5.708-5.792V6.167h8l5.834-5.75 5.75 5.75h8.041v8.041L39.583 20l-5.75 5.75v8.042h-8.041Zm.041-19.5Zm-.041 13.291 3.916-3.791h5.459v-5.5L33.292 20l-3.875-3.958v-5.459h-5.459l-3.916-3.875-3.959 3.875h-5.5v5.459L6.75 20l3.875 3.917v5.458h5.417Z"/></svg>

<svg xmlns="http://www.w3.org/2000/svg" height="40" width="40"><path d="M13.167 27.042H16.417L17.542 23.167H22.5L23.625 27.042H26.958L21.5 11.5H18.542ZM18.167 20.625 19.917 15.083H20.125L21.917 20.625ZM20.042 39.417 14.25 33.792H6.208V25.792L0.5 20L6.208 14.208V6.167H14.208L20.042 0.417L25.792 6.167H33.833V14.208L39.583 20L33.833 25.75V33.792H25.792ZM20.083 19.917ZM20.042 33.208 23.958 29.417H29.417V23.917L33.292 20L29.417 16.042V10.583H23.958L20.042 6.708L16.083 10.583H10.583V16.042L6.75 20L10.625 23.917V29.375H16.042Z"/></svg>
